svgs/thin/arrow-up-right-and-arrow-down-left-from-center.svg

<svg xmlns="http://www.w3.org/2000/svg" viewBox="0 0 512 512"><!-- Font Awesome Pro 6.0.0-alpha2 by @fontawesome - https://fontawesome.com License - https://fontawesome.com/license (Commercial License) --><path d="M210.253 290.441L15.991 484.702V344.076C15.991 339.658 12.413 336.079 7.996 336.079C3.579 336.079 0 339.652 0 344.076V504.006C0 508.42 3.575 512 7.996 512H167.926C172.364 512 175.923 508.41 175.923 504.006C175.923 499.588 172.344 496.009 167.926 496.009H27.301L221.561 301.751C229.044 294.266 217.731 282.962 210.253 290.441ZM504.004 0H344.074C339.636 0 336.077 3.588 336.077 7.994C336.077 12.412 339.656 15.991 344.074 15.991H484.699L290.439 210.251C282.974 217.713 294.254 229.049 301.747 221.559L496.009 27.298V167.924C496.009 172.342 499.587 175.921 504.004 175.921C508.422 175.921 512 172.346 512 167.924V7.994C512 3.578 508.425 0 504.004 0Z"/></svg>

<svg xmlns="http://www.w3.org/2000/svg" viewBox="0 0 512 512"><!--! Font Awesome Pro 6.4.0 by @fontawesome - https://fontawesome.com License - https://fontawesome.com/license (Commercial License) Copyright 2023 Fonticons, Inc. --><path d="M290.3 210.3c-3.1 3.1-3.1 8.2 0 11.3s8.2 3.1 11.3 0L496 27.3V168c0 4.4 3.6 8 8 8s8-3.6 8-8V8c0-4.4-3.6-8-8-8H344c-4.4 0-8 3.6-8 8s3.6 8 8 8H484.7L290.3 210.3zm-68.7 91.3c3.1-3.1 3.1-8.2 0-11.3s-8.2-3.1-11.3 0L16 484.7V344c0-4.4-3.6-8-8-8s-8 3.6-8 8V504c0 4.4 3.6 8 8 8H168c4.4 0 8-3.6 8-8s-3.6-8-8-8H27.3L221.7 301.7z"/></svg>
